packages/calcite-ui-icons/icons/spike-data-visualization-outlined-gradient-16.svg

<?xml version="1.0" encoding="UTF-8"?><svg id="icons" xmlns="http://www.w3.org/2000/svg" viewBox="0 0 16 16"><defs><style>.cls-1{fill:none;}.cls-2{opacity:.9;}.cls-3{opacity:.8;}.cls-4{opacity:.4;}.cls-5{opacity:.65;}.cls-6{opacity:.55;}.cls-7{opacity:.25;}.cls-8{opacity:.1;}</style></defs><path class="cls-8" d="M6.14648,13h4.70709l.34369,1h-5.39453l.34375-1Z"/><path class="cls-7" d="M6.49017,12h4.01971l.34369,1h-4.70709l.34369-1Z"/><path class="cls-4" d="M6.83386,11h3.33234l.34369,1h-4.01971l.34369-1Z"/><path class="cls-6" d="M7.17755,10h2.6449l.34375,1h-3.33234l.34369-1Z"/><path class="cls-5" d="M7.52124,9h1.95752l.34369,1h-2.6449l.34369-1Z"/><path class="cls-3" d="M7.86499,8h1.27008l.34369,1h-1.95752l.34375-1Z"/><path class="cls-2" d="M9.13507,8h-1.27008l.63501-1.84766.63507,1.84766Z"/><path d="M8.5,0L3,16h11L8.5,0ZM8.5,3.07617l4.09863,11.92383H4.40137L8.5,3.07617Z"/><rect class="cls-1" x="0" width="16" height="16"/></svg>

<svg xmlns="http://www.w3.org/2000/svg" viewBox="0 0 16 16"><path d="M6.146 13h4.708l.343 1H5.803l.343-1z" opacity=".1"/><path d="M6.49 12h4.02l.344 1H6.146l.344-1z" opacity=".25"/><path d="M6.834 11h3.332l.344 1H6.49l.344-1z" opacity=".4"/><path d="M7.178 10h2.644l.344 1H6.834l.344-1z" opacity=".55"/><path d="M7.521 9H9.48l.343 1H7.178l.343-1z" opacity=".65"/><path d="M7.865 8h1.27l.344 1H7.52l.344-1z" opacity=".8"/><path d="M9.135 8h-1.27L8.5 6.152 9.135 8z" opacity=".9"/><path d="M8.5 0L3 16h11L8.5 0zm0 3.076L12.599 15H4.4L8.5 3.076z"/><path fill="none" d="M0 0h16v16H0z"/></svg>
